assets/icons/phone 3.svg

<svg width="40" height="40" viewBox="0 0 40 40" fill="none" xmlns="http://www.w3.org/2000/svg">
<path d="M36.6669 28.2V33.2C36.6688 33.6641 36.5737 34.1236 36.3877 34.5489C36.2018 34.9742 35.929 35.3559 35.587 35.6697C35.245 35.9835 34.8412 36.2224 34.4015 36.3711C33.9618 36.5198 33.4958 36.5751 33.0335 36.5333C27.9049 35.976 22.9785 34.2235 18.6502 31.4166C14.6233 28.8577 11.2091 25.4436 8.65021 21.4166C5.83351 17.0686 4.08062 12.1183 3.53355 6.96662C3.4919 6.50574 3.54667 6.04123 3.69438 5.60267C3.84209 5.16411 4.0795 4.76111 4.39149 4.41933C4.70348 4.07755 5.08322 3.80447 5.50653 3.61749C5.92984 3.43052 6.38745 3.33373 6.85021 3.33329H11.8502C12.6591 3.32533 13.4432 3.61176 14.0565 4.13918C14.6698 4.6666 15.0703 5.39904 15.1835 6.19996C15.3946 7.80007 15.786 9.37117 16.3502 10.8833C16.5745 11.4798 16.623 12.1281 16.4901 12.7514C16.3571 13.3747 16.0483 13.9468 15.6002 14.4L13.4835 16.5166C15.8561 20.6892 19.311 24.144 23.4835 26.5166L25.6002 24.4C26.0534 23.9519 26.6255 23.643 27.2487 23.5101C27.872 23.3772 28.5203 23.4257 29.1169 23.65C30.629 24.2142 32.2001 24.6056 33.8002 24.8166C34.6098 24.9308 35.3492 25.3386 35.8778 25.9625C36.4063 26.5863 36.6872 27.3826 36.6669 28.2Z" fill="#34B0BE"/>
</svg>

<?xml version="1.0" encoding="utf-8"?>
<!-- Generator: Adobe Illustrator 26.0.3, SVG Export Plug-In . SVG Version: 6.00 Build 0)  -->
<svg version="1.1" id="Capa_1" xmlns="http://www.w3.org/2000/svg" xmlns:xlink="http://www.w3.org/1999/xlink" x="0px" y="0px"
	 viewBox="0 0 40 40" style="enable-background:new 0 0 40 40;" xml:space="preserve">
<style type="text/css">
	.st0{fill:#FFFFFF;}
</style>
<path class="st0" d="M36.7,28.2v5c0,0.5-0.1,0.9-0.3,1.3c-0.2,0.4-0.5,0.8-0.8,1.1c-0.3,0.3-0.7,0.6-1.2,0.7
	c-0.4,0.1-0.9,0.2-1.4,0.2C27.9,36,23,34.2,18.7,31.4c-4-2.6-7.4-6-10-10C5.8,17.1,4.1,12.1,3.5,7c0-0.5,0-0.9,0.2-1.4
	c0.1-0.4,0.4-0.8,0.7-1.2c0.3-0.3,0.7-0.6,1.1-0.8c0.4-0.2,0.9-0.3,1.3-0.3h5c0.8,0,1.6,0.3,2.2,0.8c0.6,0.5,1,1.3,1.1,2.1
	c0.2,1.6,0.6,3.2,1.2,4.7c0.2,0.6,0.3,1.2,0.1,1.9c-0.1,0.6-0.4,1.2-0.9,1.6l-2.1,2.1c2.4,4.2,5.8,7.6,10,10l2.1-2.1
	c0.5-0.4,1-0.8,1.6-0.9c0.6-0.1,1.3-0.1,1.9,0.1c1.5,0.6,3.1,1,4.7,1.2c0.8,0.1,1.5,0.5,2.1,1.1C36.4,26.6,36.7,27.4,36.7,28.2z"/>
</svg>
